src/svgs/last-week.svg

<svg xmlns="http://www.w3.org/2000/svg" viewBox="0 0 24 24" width="512" height="512" aria-labelledby="halast-week-desc halast-week-title"><title id="halast-week-title">Last Week Icon</title><desc id="halast-week-desc">A picture depicting a square with an arrow pointing down.</desc><path d="M2 20V4a2 2 0 012-2h5v2H4v16h16V4h-5V2h5a2 2 0 012 2v16a2 2 0 01-2 2H4a2 2 0 01-2-2zm4-2h12v-3H6zm10-9h-3V2h-2v7H8l4 4z"/></svg>

<svg xmlns="http://www.w3.org/2000/svg" viewBox="0 0 24 24"><path d="M2,20V4A2,2,0,0,1,4,2H9V4H4V20H20V4H15V2h5a2,2,0,0,1,2,2V20a2,2,0,0,1-2,2H4A2,2,0,0,1,2,20Zm4-2H18V15H6ZM16,9H13V2H11V9H8l4,4Z"/></svg>
